X:1
T:Blackberry Blossom
Q:1/4=160
I:abc2nwc
M:4/4
L:1/8
F:http://www.prof.co.uk/music/abc/blackberry_blossom.abc	 2002-02-16 07:19:00 UT
K:G
ge|"G"dBAc BGGA|"G"BcBA Bdge|"G"dBAc BGGB|"Am"Aaag"D"a2:|
ef|"G"g2gf gaba|"Em"gfgb agef|"C"g2gf gedg|
"Am"eaag"B7"agef|"Em"g2gf gaba|"A7"g3b a2ga|
"G"bgaf"Em"gedg|"Am"eaag"D"a2


